( Made using CamBam - http://www.cambam.info )
( Decoupe1 10/17/2015 5:23:33 PM )
( T0 : 2.5 )
G21 G90 G64 G40
G0 Z3.3
( T0 : 2.5 )
T0 M6
( trous )
G17
G0 X138.5556 Y51.2767
G0 Z1.0
G1 F200.0 Z-1.0
G1 F2000.0 X139.3932 Y51.7082
G1 X142.8651 Y58.243
G1 X142.7539 Y59.1792
G1 X142.8651 Y58.243
G1 X149.8757 Y50.3264
G1 X151.9263 Y49.2364
G1 X149.8757 Y50.3264
G1 X139.3932 Y51.7082
G1 X138.5556 Y51.2767
G1 F200.0 Z-2.0
G1 F2000.0 X139.3932 Y51.7082
G1 X142.8651 Y58.243
G1 X142.7539 Y59.1792
G1 X142.8651 Y58.243
G1 X149.8757 Y50.3264
G1 X151.9263 Y49.2364
G1 X149.8757 Y50.3264
G1 X139.3932 Y51.7082
G1 X138.5556 Y51.2767
G1 F200.0 Z-3.0
G1 F2000.0 X139.3932 Y51.7082
G1 X142.8651 Y58.243
G1 X142.7539 Y59.1792
G1 X142.8651 Y58.243
G1 X149.8757 Y50.3264
G1 X151.9263 Y49.2364
G1 X149.8757 Y50.3264
G1 X139.3932 Y51.7082
G1 X138.5556 Y51.2767
G1 F200.0 Z-4.0
G1 F2000.0 X139.3932 Y51.7082
G1 X142.8651 Y58.243
G1 X142.7539 Y59.1792
G1 X142.8651 Y58.243
G1 X149.8757 Y50.3264
G1 X151.9263 Y49.2364
G1 X149.8757 Y50.3264
G1 X139.3932 Y51.7082
G1 X138.5556 Y51.2767
G1 F200.0 Z-5.0
G1 F2000.0 X139.3932 Y51.7082
G1 X142.8651 Y58.243
G1 X142.7539 Y59.1792
G1 X142.8651 Y58.243
G1 X149.8757 Y50.3264
G1 X151.9263 Y49.2364
G1 X149.8757 Y50.3264
G1 X139.3932 Y51.7082
G1 X138.5556 Y51.2767
G1 F200.0 Z-5.5
G1 F2000.0 X139.3932 Y51.7082
G1 X142.8651 Y58.243
G1 X142.7539 Y59.1792
G1 X142.8651 Y58.243
G1 X149.8757 Y50.3264
G1 X151.9263 Y49.2364
G1 X149.8757 Y50.3264
G1 X139.3932 Y51.7082
G1 X138.5556 Y51.2767
( contour_int )
( contour_ext )
( Gravure1 )
G0 Z3.3
G0 X18.6625 Y5.7719
G0 Z1.0
G1 F0.0 Z-1.0
G1 X27.8219 Y14.35
G1 X52.1906 Y37.1781
G1 X84.9031 Y68.5875
G1 X108.8813 Y94.7656
G1 X111.3563 Y97.4125
G1 X117.8625 Y104.3719
G1 X132.3688 Y116.5469
G0 Z3.3
G0 X110.95 Y100.45
G0 Z1.0
G1 Z-1.0
G1 X111.3563 Y97.4125
G1 X111.5406 Y92.8656
G0 Z3.3
G0 X142.6065 Y60.4205
G0 Z1.0
G1 Z-1.0
G1 X153.0301 Y48.6498
G1 X137.4444 Y50.7042
G1 X142.6065 Y60.4205
G0 Z3.3
G0 X206.875 Y32.6656
G0 Z1.0
G1 Z-1.0
G1 X192.4938 Y39.3906
G1 X184.7031 Y43.4719
G1 X175.1656 Y48.9062
G1 X156.7969 Y60.1719
G1 X150.7 Y64.3812
G1 X147.375 Y66.9094
G1 X134.4719 Y76.7062
G1 X111.5406 Y92.8656
G1 X108.8813 Y94.7656
G1 X110.95 Y100.45
G1 X110.7813 Y101.8531
G1 X106.5531 Y136.6437
G1 X105.6844 Y144.7375
G1 X104.6781 Y154.0906
G1 X102.9344 Y170.0594
G1 X102.7406 Y171.7687
G1 X102.3406 Y174.9531
G1 X98.7906 Y203.3812
G1 X98.3656 Y206.7969
G1 X97.2938 Y221.2562
G1 X95.8438 Y235.725
G1 X91.8469 Y275.8531
G1 X91.375 Y280.5281
G1 X90.7906 Y285.3344
G1 X88.2375 Y303.0937
G1 X87.2188 Y315.0844
G1 X83.8313 Y349.4156
G1 X83.2438 Y354.2406
G1 X83.1875 Y354.8281
G1 X79.7 Y381.5281
G1 X76.0875 Y415.3656
G1 X73.7281 Y414.7438
G1 X72.0219 Y414.0
G1 X65.1 Y409.5281
G1 X39.9281 Y390.6562
G1 X32.9625 Y385.8094
G1 X4.1688 Y372.7031
G0 Z3.3
G0 X73.7094 Y430.8812
G0 Z1.0
G1 Z-1.0
G1 X77.9719 Y430.3344
G1 X82.4125 Y430.6844
G1 X85.15 Y429.4469
G1 X85.6219 Y428.0187
G1 X85.525 Y426.3469
G1 X84.8438 Y424.4437
G1 X84.1313 Y421.6625
G0 Z3.3
G0 X82.4125 Y430.6844
G0 Z0.0
G1 Z-1.0
G1 X106.1625 Y433.0906
G0 Z3.3
G0 X131.6375 Y435.7969
G0 Z1.0
G1 Z-1.0
G1 X129.6438 Y434.5156
G1 X127.1625 Y433.2937
G1 X122.6563 Y432.7562
G1 X106.1625 Y433.0906
G1 X97.1938 Y435.0812
G1 X92.4719 Y437.3125
G1 X88.5844 Y439.8469
G1 X82.3125 Y444.7687
G1 X76.1656 Y450.7312
G1 X68.9688 Y459.3031
G1 X65.2813 Y463.6094
G1 X72.4094 Y435.9281
G1 X73.7094 Y430.8812
G1 X74.8031 Y424.8437
G1 X76.0875 Y415.3656
G1 X78.4563 Y416.4469
G1 X82.1688 Y419.5781
G1 X84.1313 Y421.6625
G1 X87.2656 Y424.1594
G1 X90.2781 Y426.1469
G1 X94.2094 Y427.8281
G1 X98.4188 Y429.0469
G1 X105.9875 Y429.8594
G1 X123.1969 Y429.9969
G1 X127.4781 Y429.9875
G1 X130.6813 Y429.5406
G1 X133.1344 Y428.9687
G0 Z3.3
G0 X150.3282 Y430.2844
G0 Z1.0
G1 Z-1.0
G1 X148.9375 Y428.0656
G1 X147.0094 Y426.2937
G1 X144.6813 Y425.0875
G1 X142.1188 Y424.5406
G1 X139.5032 Y424.6937
G1 X137.0219 Y425.525
G1 X134.8469 Y426.9875
G1 X133.1344 Y428.9687
G1 X132.0844 Y431.1
G1 X131.5719 Y433.4219
G1 X131.6375 Y435.7969
G1 X132.2719 Y438.1062
G1 X133.4469 Y440.1906
G1 X135.0938 Y441.9312
G1 X137.1063 Y443.2219
G1 X139.3781 Y443.9937
G1 X141.7656 Y444.1875
G1 X143.8906 Y443.8687
G1 X145.8938 Y443.0937
G1 X147.6844 Y441.9031
G1 X149.1688 Y440.3562
G1 X150.1094 Y438.8812
G1 X150.7719 Y437.2656
G1 X151.1406 Y435.5219
G1 X151.1906 Y433.7344
G1 X150.9188 Y431.9687
G1 X150.3281 Y430.2844
G1 X152.1688 Y431.25
G1 X154.3188 Y432.0875
G1 X154.3937 Y432.1969
G1 X161.4437 Y433.3687
G0 Z3.3
G0 X150.7719 Y437.2656
G0 Z0.0
G1 Z-1.0
G1 X152.5906 Y436.2
G1 X154.7906 Y435.0687
G1 X161.4438 Y433.3687
G1 X191.3875 Y432.8
G1 X197.5938 Y431.8625
G1 X201.7219 Y429.9469
G1 X206.0563 Y427.8031
G1 X209.3875 Y425.7719
G1 X212.4875 Y422.9031
G1 X215.9969 Y418.2156
G1 X218.1344 Y413.2406
G1 X224.0281 Y399.0312
G1 X228.8156 Y387.9
G1 X230.4406 Y358.3125
G1 X233.2656 Y346.9187
G1 X234.7469 Y342.8219
G1 X236.6469 Y337.575
G1 X237.3281 Y335.325
G1 X241.8625 Y321.1031
G1 X250.7469 Y295.7625
G1 X252.4531 Y291.4812
G1 X256.0281 Y283.9562
G1 X259.7656 Y277.5125
G1 X264.0344 Y272.775
G1 X273.175 Y264.3531
G0 Z3.3
G0 X273.0219 Y261.3437
G0 Z1.0
G1 Z-1.0
G1 X241.7625 Y229.2344
G1 X235.6594 Y223.1344
G1 X221.9531 Y208.6094
G1 X210.3469 Y196.8312
G1 X208.4719 Y194.9312
G1 X206.4594 Y192.8656
G1 X171.0719 Y156.5719
G1 X169.0813 Y154.5312
G1 X167.1156 Y152.4437
G1 X152.4406 Y136.875
G1 X134.9781 Y119.1875
G1 X132.3688 Y116.5469
G1 X120.3313 Y101.4656
G1 X111.5406 Y92.8656
G1 X106.4 Y88.2344
G1 X97.9688 Y79.8562
G1 X86.4938 Y68.6062
G1 X79.925 Y61.3969
G1 X66.825 Y47.0875
G1 X56.45 Y34.6687
G1 X49.475 Y27.4031
G1 X35.9031 Y14.3031
G1 X26.3375 Y5.8437
G1 X26.2656 Y5.7719
G0 Z3.3
G0 X21.5938
G0 Z1.0
G1 Z-1.0
G1 X24.1563 Y8.1375
G1 X27.8219 Y14.35
G0 Z3.3
G0 X6.3563 Y187.7469
G0 Z1.0
G1 Z-1.0
G1 X12.4031 Y194.3187
G1 X17.2375 Y197.4656
G1 X23.2469 Y201.2312
G1 X31.225 Y202.8219
G1 X37.4938 Y203.6437
G1 X56.4125 Y203.7812
G1 X66.1375 Y204.2344
G1 X75.275 Y204.7187
G1 X85.3438 Y205.25
G1 X94.7219 Y206.3656
G1 X98.3656 Y206.7969
G0 Z3.3
G0 X277.4563 Y261.0375
G0 Z1.0
G1 Z-1.0
G1 X299.6844 Y243.6812
G1 X299.3438 Y242.3781
G1 X299.825 Y240.5875
G1 X301.0063 Y239.5125
G1 X302.6031 Y239.4469
G1 X303.7031 Y239.9969
G1 X304.5219 Y241.4281
G0 Z3.3
G0 X299.6844 Y243.6813
G0 Z1.0
G1 Z-1.0
G1 X300.3438 Y244.5375
G1 X301.2375 Y244.9969
G1 X302.6313 Y245.05
G1 X303.9063 Y244.1719
G1 X304.4688 Y242.8312
G1 X304.5219 Y241.4281
G1 X306.4 Y240.75
G1 X316.8063 Y234.8625
G0 Z3.3
G0 X277.9563 Y263.4469
G0 Z1.0
G1 Z-1.0
G1 X279.6219 Y267.5062
G1 X295.8156 Y283.75
G1 X312.3656 Y299.475
G1 X316.3094 Y303.2219
G0 Z3.3
G0 X279.6219 Y267.5062
G0 Z0.0
G1 Z-1.0
G1 X276.1469 Y265.3187
G1 X274.5094 Y265.3123
G1 X273.175 Y264.353
G1 X272.7219 Y263.3998
G1 X272.6656 Y262.3436
G1 X273.0219 Y261.3436
G1 X274.3156 Y260.2311
G1 X276.0188 Y260.1092
G1 X277.4563 Y261.0373
G1 X277.9969 Y262.1811
G1 X277.9562 Y263.4467
G1 X277.2906 Y264.6155
G1 X276.1469 Y265.3186
G0 Z3.3
G0 X149.1688 Y440.3562
G0 Z0.0
G1 Z-1.0
G1 X149.1563 Y442.3937
G1 X149.8813 Y445.4562
G1 X153.975 Y455.6312
G1 X158.0688 Y468.9062
G0 Z3.3
G0 X141.7656 Y444.1875
G0 Z0.0
G1 Z-1.0
G1 X143.4563 Y445.3375
G1 X145.5094 Y447.3906
G1 X150.6063 Y456.6625
G1 X158.0688 Y468.9062
G1 X160.1 Y473.1281
G1 X167.5938 Y489.1344
G1 X172.2813 Y499.6906
G0 Z3.3
G0 X65.2813 Y463.6094
G0 Z0.0
G1 Z-1.0
G1 X61.8438 Y473.0781
G1 X53.1469 Y487.6219
G1 X51.6344 Y490.4812
G1 X47.55 Y499.6906
G1 Z-2.0
G1 X51.6344 Y490.4812
G1 X53.1469 Y487.6219
G1 X61.8438 Y473.0781
G1 X65.2813 Y463.6094
G0 Z3.3
G0 X73.7094 Y430.8812
G0 Z0.0
G1 Z-2.0
G1 X77.9719 Y430.3344
G1 X82.4125 Y430.6844
G1 X85.15 Y429.4469
G1 X85.6219 Y428.0187
G1 X85.525 Y426.3469
G1 X84.8438 Y424.4437
G1 X84.1313 Y421.6625
G0 Z3.3
G0 X82.4125 Y430.6844
G0 Z-1.0
G1 Z-2.0
G1 X106.1625 Y433.0906
G0 Z3.3
G0 X131.6375 Y435.7969
G0 Z0.0
G1 Z-2.0
G1 X129.6438 Y434.5156
G1 X127.1625 Y433.2937
G1 X122.6563 Y432.7562
G1 X106.1625 Y433.0906
G1 X97.1938 Y435.0812
G1 X92.4719 Y437.3125
G1 X88.5844 Y439.8469
G1 X82.3125 Y444.7687
G1 X76.1656 Y450.7312
G1 X68.9688 Y459.3031
G1 X65.2813 Y463.6094
G1 X72.4094 Y435.9281
G1 X73.7094 Y430.8812
G1 X74.8031 Y424.8437
G1 X76.0875 Y415.3656
G1 X78.4563 Y416.4469
G1 X82.1688 Y419.5781
G1 X84.1313 Y421.6625
G1 X87.2656 Y424.1594
G1 X90.2781 Y426.1469
G1 X94.2094 Y427.8281
G1 X98.4188 Y429.0469
G1 X105.9875 Y429.8594
G1 X123.1969 Y429.9969
G1 X127.4781 Y429.9875
G1 X130.6813 Y429.5406
G1 X133.1344 Y428.9687
G0 Z3.3
G0 X150.3282 Y430.2844
G0 Z0.0
G1 Z-2.0
G1 X148.9375 Y428.0656
G1 X147.0094 Y426.2937
G1 X144.6813 Y425.0875
G1 X142.1188 Y424.5406
G1 X139.5032 Y424.6937
G1 X137.0219 Y425.525
G1 X134.8469 Y426.9875
G1 X133.1344 Y428.9687
G1 X132.0844 Y431.1
G1 X131.5719 Y433.4219
G1 X131.6375 Y435.7969
G1 X132.2719 Y438.1062
G1 X133.4469 Y440.1906
G1 X135.0938 Y441.9312
G1 X137.1063 Y443.2219
G1 X139.3781 Y443.9937
G1 X141.7656 Y444.1875
G1 X143.8906 Y443.8687
G1 X145.8938 Y443.0937
G1 X147.6844 Y441.9031
G1 X149.1688 Y440.3562
G1 X150.1094 Y438.8812
G1 X150.7719 Y437.2656
G1 X151.1406 Y435.5219
G1 X151.1906 Y433.7344
G1 X150.9188 Y431.9687
G1 X150.3281 Y430.2844
G1 X152.1688 Y431.25
G1 X154.3188 Y432.0875
G1 X154.3937 Y432.1969
G1 X161.4437 Y433.3687
G0 Z3.3
G0 X150.7719 Y437.2656
G0 Z-1.0
G1 Z-2.0
G1 X152.5906 Y436.2
G1 X154.7906 Y435.0687
G1 X161.4438 Y433.3687
G1 X191.3875 Y432.8
G1 X197.5938 Y431.8625
G1 X201.7219 Y429.9469
G1 X206.0563 Y427.8031
G1 X209.3875 Y425.7719
G1 X212.4875 Y422.9031
G1 X215.9969 Y418.2156
G1 X218.1344 Y413.2406
G1 X224.0281 Y399.0312
G1 X228.8156 Y387.9
G1 X230.4406 Y358.3125
G1 X233.2656 Y346.9187
G1 X234.7469 Y342.8219
G1 X236.6469 Y337.575
G1 X237.3281 Y335.325
G1 X241.8625 Y321.1031
G1 X250.7469 Y295.7625
G1 X252.4531 Y291.4812
G1 X256.0281 Y283.9562
G1 X259.7656 Y277.5125
G1 X264.0344 Y272.775
G1 X273.175 Y264.3531
G0 Z3.3
G0 X273.0219 Y261.3437
G0 Z0.0
G1 Z-2.0
G1 X241.7625 Y229.2344
G1 X235.6594 Y223.1344
G1 X221.9531 Y208.6094
G1 X210.3469 Y196.8312
G1 X208.4719 Y194.9312
G1 X206.4594 Y192.8656
G1 X171.0719 Y156.5719
G1 X169.0813 Y154.5312
G1 X167.1156 Y152.4437
G1 X152.4406 Y136.875
G1 X134.9781 Y119.1875
G1 X132.3688 Y116.5469
G1 X120.3313 Y101.4656
G1 X111.5406 Y92.8656
G1 X106.4 Y88.2344
G1 X97.9688 Y79.8562
G1 X86.4938 Y68.6062
G1 X79.925 Y61.3969
G1 X66.825 Y47.0875
G1 X56.45 Y34.6687
G1 X49.475 Y27.4031
G1 X35.9031 Y14.3031
G1 X26.3375 Y5.8437
G1 X26.2656 Y5.7719
G0 Z3.3
G0 X21.5938
G0 Z0.0
G1 Z-2.0
G1 X24.1563 Y8.1375
G1 X27.8219 Y14.35
G0 Z3.3
G0 X18.6625 Y5.7719
G0 Z0.0
G1 Z-2.0
G1 X27.8219 Y14.35
G1 X52.1906 Y37.1781
G1 X84.9031 Y68.5875
G1 X108.8813 Y94.7656
G1 X111.3563 Y97.4125
G1 X117.8625 Y104.3719
G1 X132.3688 Y116.5469
G0 Z3.3
G0 X110.95 Y100.45
G0 Z0.0
G1 Z-2.0
G1 X111.3563 Y97.4125
G1 X111.5406 Y92.8656
G0 Z3.3
G0 X142.6065 Y60.4205
G0 Z0.0
G1 Z-2.0
G1 X153.0301 Y48.6498
G1 X137.4444 Y50.7042
G1 X142.6065 Y60.4205
G0 Z3.3
G0 X206.875 Y32.6656
G0 Z0.0
G1 Z-2.0
G1 X192.4938 Y39.3906
G1 X184.7031 Y43.4719
G1 X175.1656 Y48.9062
G1 X156.7969 Y60.1719
G1 X150.7 Y64.3812
G1 X147.375 Y66.9094
G1 X134.4719 Y76.7062
G1 X111.5406 Y92.8656
G1 X108.8813 Y94.7656
G1 X110.95 Y100.45
G1 X110.7813 Y101.8531
G1 X106.5531 Y136.6437
G1 X105.6844 Y144.7375
G1 X104.6781 Y154.0906
G1 X102.9344 Y170.0594
G1 X102.7406 Y171.7687
G1 X102.3406 Y174.9531
G1 X98.7906 Y203.3812
G1 X98.3656 Y206.7969
G1 X97.2938 Y221.2562
G1 X95.8438 Y235.725
G1 X91.8469 Y275.8531
G1 X91.375 Y280.5281
G1 X90.7906 Y285.3344
G1 X88.2375 Y303.0937
G1 X87.2188 Y315.0844
G1 X83.8313 Y349.4156
G1 X83.2438 Y354.2406
G1 X83.1875 Y354.8281
G1 X79.7 Y381.5281
G1 X76.0875 Y415.3656
G1 X73.7281 Y414.7438
G1 X72.0219 Y414.0
G1 X65.1 Y409.5281
G1 X39.9281 Y390.6562
G1 X32.9625 Y385.8094
G1 X4.1688 Y372.7031
G0 Z3.3
G0 X141.7656 Y444.1875
G0 Z-1.0
G1 Z-2.0
G1 X143.4563 Y445.3375
G1 X145.5094 Y447.3906
G1 X150.6063 Y456.6625
G1 X158.0688 Y468.9062
G1 X160.1 Y473.1281
G1 X167.5938 Y489.1344
G1 X172.2813 Y499.6906
G0 Z3.3
G0 X158.0688 Y468.9062
G0 Z-1.0
G1 Z-2.0
G1 X153.975 Y455.6312
G1 X149.8813 Y445.4562
G1 X149.1563 Y442.3937
G1 X149.1688 Y440.3562
G0 Z3.3
G0 X316.3094 Y303.2219
G0 Z0.0
G1 Z-2.0
G1 X312.3656 Y299.475
G1 X295.8156 Y283.75
G1 X279.6219 Y267.5062
G1 X277.9563 Y263.4469
G0 Z3.3
G0 X277.4563 Y261.0375
G0 Z0.0
G1 Z-2.0
G1 X299.6844 Y243.6812
G1 X299.3438 Y242.3781
G1 X299.825 Y240.5875
G1 X301.0063 Y239.5125
G1 X302.6031 Y239.4469
G1 X303.7031 Y239.9969
G1 X304.5219 Y241.4281
G0 Z3.3
G0 X299.6844 Y243.6813
G0 Z0.0
G1 Z-2.0
G1 X300.3438 Y244.5375
G1 X301.2375 Y244.9969
G1 X302.6313 Y245.05
G1 X303.9063 Y244.1719
G1 X304.4688 Y242.8312
G1 X304.5219 Y241.4281
G1 X306.4 Y240.75
G1 X316.8063 Y234.8625
G0 Z3.3
G0 X279.6219 Y267.5062
G0 Z-1.0
G1 Z-2.0
G1 X276.1469 Y265.3187
G1 X274.5094 Y265.3123
G1 X273.175 Y264.353
G1 X272.7219 Y263.3998
G1 X272.6656 Y262.3436
G1 X273.0219 Y261.3436
G1 X274.3156 Y260.2311
G1 X276.0188 Y260.1092
G1 X277.4563 Y261.0373
G1 X277.9969 Y262.1811
G1 X277.9562 Y263.4467
G1 X277.2906 Y264.6155
G1 X276.1469 Y265.3186
G0 Z3.3
G0 X98.3656 Y206.7969
G0 Z-1.0
G1 Z-2.0
G1 X94.7219 Y206.3656
G1 X85.3438 Y205.25
G1 X75.275 Y204.7187
G1 X66.1375 Y204.2344
G1 X56.4125 Y203.7812
G1 X37.4938 Y203.6437
G1 X31.225 Y202.8219
G1 X23.2469 Y201.2312
G1 X17.2375 Y197.4656
G1 X12.4031 Y194.3187
G1 X6.3563 Y187.7469
G0 Z3.3
M30
