( Made using CamBam - http://www.cambam.info )
( Decoupe1 10/9/2015 8:02:38 PM )
( T0 : 2.5 )
G21 G90 G64 G40
G0 Z0.0
( T0 : 2.5 )
T0 M6
( trous )
G17
G0 X65.4336 Y11.8178
G1 F200.0 Z-1.0
G1 F2000.0 X66.3763 Y11.8058
G1 X78.1405 Y19.7474
G1 X79.4889 Y21.6381
G1 X78.1405 Y19.7474
G1 X74.4641 Y6.0399
G1 X74.7825 Y5.1531
G1 X74.4641 Y6.0399
G1 X66.3763 Y11.8058
G1 X65.4336 Y11.8178
G0 Z0.0
G0 X54.7473 Y43.214
G1 F200.0 Z-1.0
G1 F2000.0 X56.1793 Y45.0422
G1 X60.4679 Y58.5707
G1 X60.1897 Y59.4709
G1 X60.4679 Y58.5707
G1 X68.2884 Y52.4473
G1 X69.2296 Y52.3929
G1 X68.2884 Y52.4473
G1 X56.1793 Y45.0422
G1 X54.7473 Y43.214
G0 Z0.0
G0 X123.0207 Y111.4874
G1 F200.0 Z-1.0
G1 F2000.0 X124.4527 Y113.3156
G1 X128.7413 Y126.8441
G1 X128.4631 Y127.7443
G1 X128.7413 Y126.8441
G1 X136.5618 Y120.7207
G1 X137.503 Y120.6663
G1 X136.5618 Y120.7207
G1 X124.4527 Y113.3156
G1 X123.0207 Y111.4874
G0 Z0.0
G0 X144.4094 Y98.9125
G1 F200.0 Z-1.0
G1 F2000.0 X145.3521 Y98.9005
G1 X157.1162 Y106.8421
G1 X158.4647 Y108.7329
G1 X157.1162 Y106.8421
G1 X153.4398 Y93.1347
G1 X153.7582 Y92.2479
G1 X153.4398 Y93.1347
G1 X145.3521 Y98.9005
G1 X144.4094 Y98.9125
G0 Z0.0
G0 X129.5793 Y158.6515
G1 F200.0 Z-1.0
G1 F2000.0 X128.7412 Y159.0821
G1 X118.8953 Y157.7728
G1 X118.1983 Y157.138
G1 X118.8953 Y157.7728
G1 X122.0685 Y171.6075
G1 X121.7628 Y173.9096
G1 X122.0685 Y171.6075
G1 X128.7412 Y159.0821
G1 X129.5793 Y158.6515
G0 Z0.0
G0 X97.9262 Y160.5639
G1 F200.0 Z-1.0
G1 F2000.0 X97.268 Y159.8889
G1 X94.919 Y145.8908
G1 X95.3604 Y143.6108
G1 X94.919 Y145.8908
G1 X87.5168 Y157.9994
G1 X86.6547 Y158.3796
G1 X87.5168 Y157.9994
G1 X97.268 Y159.8889
G1 X97.9262 Y160.5639
G0 Z0.0
G0 X64.4809 Y168.2456
G1 F200.0 Z-1.0
G1 F2000.0 X62.1637 Y168.0923
G1 X49.2256 Y162.26
G1 X48.7407 Y161.4521
G1 X49.2256 Y162.26
G1 X48.5684 Y172.1708
G1 X47.9809 Y172.9081
G1 X48.5684 Y172.1708
G1 X62.1637 Y168.0923
G1 X64.4809 Y168.2456
G0 Z0.0
G0 X33.0052 Y189.8731
G1 F200.0 Z-1.0
G1 F2000.0 X32.1026 Y190.1452
G1 X18.6018 Y185.7642
G1 X16.7833 Y184.3198
G1 X18.6018 Y185.7642
G1 X25.9234 Y197.9217
G1 X25.8625 Y198.8619
G1 X25.9234 Y197.9217
G1 X32.1026 Y190.1452
G1 X33.0052 Y189.8731
G0 Z0.0
G0 X85.2397 Y218.807
G1 F200.0 Z-1.0
G1 F2000.0 X84.7983 Y221.087
G1 X77.3961 Y233.1956
G1 X76.534 Y233.5758
G1 X77.3961 Y233.1956
G1 X87.1473 Y235.0851
G1 X87.8055 Y235.7601
G1 X87.1473 Y235.0851
G1 X84.7983 Y221.087
G1 X85.2397 Y218.807
G0 Z0.0
G0 X109.559 Y222.7443
G1 F200.0 Z-1.0
G1 F2000.0 X110.256 Y223.3792
G1 X113.4291 Y237.2138
G1 X113.1234 Y239.5159
G1 X113.4291 Y237.2138
G1 X120.1019 Y224.6884
G1 X120.94 Y224.2579
G1 X120.1019 Y224.6884
G1 X110.256 Y223.3792
G1 X109.559 Y222.7443
G0 Z0.0
G0 X184.3743 Y187.4183
G1 F200.0 Z-1.0
G1 F2000.0 X184.6525 Y186.5181
G1 X192.473 Y180.3947
G1 X193.4142 Y180.3403
G1 X192.473 Y180.3947
G1 X180.3639 Y172.9896
G1 X178.9319 Y171.1614
G1 X180.3639 Y172.9896
G1 X184.6525 Y186.5181
G1 X184.3743 Y187.4183
G0 Z0.0
G0 X203.4566 Y159.0669
G1 F200.0 Z-1.0
G1 F2000.0 X204.3993 Y159.0549
G1 X216.1635 Y166.9966
G1 X217.512 Y168.8873
G1 X216.1635 Y166.9966
G1 X212.4871 Y153.2891
G1 X212.8055 Y152.4023
G1 X212.4871 Y153.2891
G1 X204.3993 Y159.0549
G1 X203.4566 Y159.0669
G0 Z0.0
G0 X230.8313 Y257.7473
G1 F200.0 Z-1.0
G1 F2000.0 X229.9879 Y259.7541
G1 X220.1601 Y269.8641
G1 X219.1501 Y270.0908
G1 X220.1601 Y269.8641
G1 X229.6533 Y273.4161
G1 X230.1602 Y274.1665
G1 X229.6533 Y273.4161
G1 X229.9879 Y259.7541
G1 X230.8313 Y257.7473
G0 Z0.0
G0 X238.4004 Y304.3852
G1 F200.0 Z-1.0
G1 F2000.0 X239.0271 Y305.0895
G1 X240.7348 Y319.1802
G1 X240.1899 Y321.4377
G1 X240.7348 Y319.1802
G1 X248.6819 Y307.422
G1 X249.5605 Y307.0816
G1 X248.6819 Y307.422
G1 X239.0271 Y305.0895
G1 X238.4004 Y304.3852
G0 Z0.0
G0 X179.0139 Y378.6427
G1 F200.0 Z-1.0
G1 F2000.0 X176.6949 Y378.5194
G1 X163.6825 Y372.8546
G1 X163.1873 Y372.0531
G1 X163.6825 Y372.8546
G1 X163.1534 Y382.7731
G1 X162.5754 Y383.518
G1 X163.1534 Y382.7731
G1 X176.6949 Y378.5194
G1 X179.0139 Y378.6427
G0 Z0.0
G0 X179.073 Y398.5317
G1 F200.0 Z-1.0
G1 F2000.0 X178.5332 Y399.3047
G1 X165.2226 Y404.2334
G1 X162.9003 Y404.2268
G1 X165.2226 Y404.2334
G1 X178.5032 Y409.2372
G1 X179.0381 Y410.0129
G1 X178.5032 Y409.2372
G1 X178.5332 Y399.3047
G1 X179.073 Y398.5317
G0 Z0.0
G0 X99.0682 Y417.6261
G1 F200.0 Z-1.0
G1 F2000.0 X98.1271 Y417.6727
G1 X89.6972 Y412.4198
G1 X89.324 Y411.5541
G1 X89.6972 Y412.4198
G1 X86.8831 Y426.3319
G1 X85.6552 Y428.3031
G1 X86.8831 Y426.3319
G1 X98.1271 Y417.6727
G1 X99.0682 Y417.6261
G0 Z0.0
G0 X60.8092 Y417.2097
G1 F200.0 Z-1.0
G1 F2000.0 X59.5074 Y419.1328
G1 X47.9424 Y427.3585
G1 X47.0003 Y427.3694
G1 X47.9424 Y427.3585
G1 X56.1667 Y432.9279
G1 X56.5067 Y433.8073
G1 X56.1667 Y432.9279
G1 X59.5074 Y419.1328
G1 X60.8092 Y417.2097
G0 Z0.0
G0 X76.3106 Y346.5052
G1 F200.0 Z-1.0
G1 F2000.0 X75.6565 Y345.8263
G1 X73.3914 Y331.8143
G1 X73.8465 Y329.537
G1 X73.3914 Y331.8143
G1 X65.9168 Y343.8784
G1 X65.0524 Y344.2534
G1 X65.9168 Y343.8784
G1 X75.6565 Y345.8263
G1 X76.3106 Y346.5052
G0 Z0.0
G0 X100.315 Y340.9995
G1 F200.0 Z-1.0
G1 F2000.0 X101.9887 Y348.2965
G1 X101.683 Y350.5986
G1 X101.9887 Y348.2965
G1 X108.6615 Y335.7711
G1 X109.4996 Y335.3406
G1 X108.6615 Y335.7711
G1 X98.8156 Y334.4619
G1 X98.1186 Y333.827
G1 X98.8156 Y334.4619
G1 X100.315 Y340.9995
G1 F200.0 Z-2.0
G1 F2000.0 X101.9887 Y348.2965
G1 X101.683 Y350.5986
G1 X101.9887 Y348.2965
G1 X108.6615 Y335.7711
G1 X109.4996 Y335.3406
G1 X108.6615 Y335.7711
G1 X98.8156 Y334.4619
G1 X98.1186 Y333.827
G1 X98.8156 Y334.4619
G1 X100.315 Y340.9995
G0 Z0.0
G0 X76.3106 Y346.5052
G1 F200.0 Z-2.0
G1 F2000.0 X75.6565 Y345.8263
G1 X73.3914 Y331.8143
G1 X73.8465 Y329.537
G1 X73.3914 Y331.8143
G1 X65.9168 Y343.8784
G1 X65.0524 Y344.2534
G1 X65.9168 Y343.8784
G1 X75.6565 Y345.8263
G1 X76.3106 Y346.5052
G0 Z0.0
G0 X89.324 Y411.5541
G1 F200.0 Z-2.0
G1 F2000.0 X89.6972 Y412.4198
G1 X86.8831 Y426.3319
G1 X85.6552 Y428.3031
G1 X86.8831 Y426.3319
G1 X98.1271 Y417.6727
G1 X99.0682 Y417.6261
G1 X98.1271 Y417.6727
G1 X89.6972 Y412.4198
G1 X89.324 Y411.5541
G0 Z0.0
G0 X60.8092 Y417.2097
G1 F200.0 Z-2.0
G1 F2000.0 X59.5074 Y419.1328
G1 X47.9424 Y427.3585
G1 X47.0003 Y427.3694
G1 X47.9424 Y427.3585
G1 X56.1667 Y432.9279
G1 X56.5067 Y433.8073
G1 X56.1667 Y432.9279
G1 X59.5074 Y419.1328
G1 X60.8092 Y417.2097
G0 Z0.0
G0 X162.9003 Y404.2268
G1 F200.0 Z-2.0
G1 F2000.0 X165.2226 Y404.2334
G1 X178.5032 Y409.2372
G1 X179.0381 Y410.0129
G1 X178.5032 Y409.2372
G1 X178.5332 Y399.3047
G1 X179.073 Y398.5317
G1 X178.5332 Y399.3047
G1 X165.2226 Y404.2334
G1 X162.9003 Y404.2268
G0 Z0.0
G0 X162.5754 Y383.518
G1 F200.0 Z-2.0
G1 F2000.0 X163.1534 Y382.7731
G1 X176.6949 Y378.5194
G1 X179.0139 Y378.6427
G1 X176.6949 Y378.5194
G1 X163.6825 Y372.8546
G1 X163.1873 Y372.0531
G1 X163.6825 Y372.8546
G1 X163.1534 Y382.7731
G1 X162.5754 Y383.518
G0 Z0.0
G0 X240.1899 Y321.4377
G1 F200.0 Z-2.0
G1 F2000.0 X240.7348 Y319.1802
G1 X248.6819 Y307.422
G1 X249.5605 Y307.0816
G1 X248.6819 Y307.422
G1 X239.0271 Y305.0895
G1 X238.4004 Y304.3852
G1 X239.0271 Y305.0895
G1 X240.7348 Y319.1802
G1 X240.1899 Y321.4377
G0 Z0.0
G0 X230.1602 Y274.1665
G1 F200.0 Z-2.0
G1 F2000.0 X229.6533 Y273.4161
G1 X229.9879 Y259.7541
G1 X230.8313 Y257.7473
G1 X229.9879 Y259.7541
G1 X220.1601 Y269.8641
G1 X219.1501 Y270.0908
G1 X220.1601 Y269.8641
G1 X229.6533 Y273.4161
G1 X230.1602 Y274.1665
G0 Z0.0
G0 X184.3743 Y187.4183
G1 F200.0 Z-2.0
G1 F2000.0 X184.6525 Y186.5181
G1 X192.473 Y180.3947
G1 X193.4142 Y180.3403
G1 X192.473 Y180.3947
G1 X180.3639 Y172.9896
G1 X178.9319 Y171.1614
G1 X180.3639 Y172.9896
G1 X184.6525 Y186.5181
G1 X184.3743 Y187.4183
G0 Z0.0
G0 X203.4566 Y159.0669
G1 F200.0 Z-2.0
G1 F2000.0 X204.3993 Y159.0549
G1 X216.1635 Y166.9966
G1 X217.512 Y168.8873
G1 X216.1635 Y166.9966
G1 X212.4871 Y153.2891
G1 X212.8055 Y152.4023
G1 X212.4871 Y153.2891
G1 X204.3993 Y159.0549
G1 X203.4566 Y159.0669
G0 Z0.0
G0 X158.4647 Y108.7329
G1 F200.0 Z-2.0
G1 F2000.0 X157.1162 Y106.8421
G1 X153.4398 Y93.1347
G1 X153.7582 Y92.2479
G1 X153.4398 Y93.1347
G1 X145.3521 Y98.9005
G1 X144.4094 Y98.9125
G1 X145.3521 Y98.9005
G1 X157.1162 Y106.8421
G1 X158.4647 Y108.7329
G0 Z0.0
G0 X137.503 Y120.6663
G1 F200.0 Z-2.0
G1 F2000.0 X136.5618 Y120.7207
G1 X124.4527 Y113.3156
G1 X123.0207 Y111.4874
G1 X124.4527 Y113.3156
G1 X128.7413 Y126.8441
G1 X128.4631 Y127.7443
G1 X128.7413 Y126.8441
G1 X136.5618 Y120.7207
G1 X137.503 Y120.6663
G0 Z0.0
G0 X129.5793 Y158.6515
G1 F200.0 Z-2.0
G1 F2000.0 X128.7412 Y159.0821
G1 X118.8953 Y157.7728
G1 X118.1983 Y157.138
G1 X118.8953 Y157.7728
G1 X122.0685 Y171.6075
G1 X121.7628 Y173.9096
G1 X122.0685 Y171.6075
G1 X128.7412 Y159.0821
G1 X129.5793 Y158.6515
G0 Z0.0
G0 X97.9262 Y160.5639
G1 F200.0 Z-2.0
G1 F2000.0 X97.268 Y159.8889
G1 X94.919 Y145.8908
G1 X95.3604 Y143.6108
G1 X94.919 Y145.8908
G1 X87.5168 Y157.9994
G1 X86.6547 Y158.3796
G1 X87.5168 Y157.9994
G1 X97.268 Y159.8889
G1 X97.9262 Y160.5639
G0 Z0.0
G0 X64.4809 Y168.2456
G1 F200.0 Z-2.0
G1 F2000.0 X62.1637 Y168.0923
G1 X49.2256 Y162.26
G1 X48.7407 Y161.4521
G1 X49.2256 Y162.26
G1 X48.5684 Y172.1708
G1 X47.9809 Y172.9081
G1 X48.5684 Y172.1708
G1 X62.1637 Y168.0923
G1 X64.4809 Y168.2456
G0 Z0.0
G0 X33.0052 Y189.8731
G1 F200.0 Z-2.0
G1 F2000.0 X32.1026 Y190.1452
G1 X18.6018 Y185.7642
G1 X16.7833 Y184.3198
G1 X18.6018 Y185.7642
G1 X25.9234 Y197.9217
G1 X25.8625 Y198.8619
G1 X25.9234 Y197.9217
G1 X32.1026 Y190.1452
G1 X33.0052 Y189.8731
G0 Z0.0
G0 X85.2397 Y218.807
G1 F200.0 Z-2.0
G1 F2000.0 X84.7983 Y221.087
G1 X77.3961 Y233.1956
G1 X76.534 Y233.5758
G1 X77.3961 Y233.1956
G1 X87.1473 Y235.0851
G1 X87.8055 Y235.7601
G1 X87.1473 Y235.0851
G1 X84.7983 Y221.087
G1 X85.2397 Y218.807
G0 Z0.0
G0 X109.559 Y222.7443
G1 F200.0 Z-2.0
G1 F2000.0 X110.256 Y223.3792
G1 X113.4291 Y237.2138
G1 X113.1234 Y239.5159
G1 X113.4291 Y237.2138
G1 X120.1019 Y224.6884
G1 X120.94 Y224.2579
G1 X120.1019 Y224.6884
G1 X110.256 Y223.3792
G1 X109.559 Y222.7443
G0 Z0.0
G0 X60.1897 Y59.4709
G1 F200.0 Z-2.0
G1 F2000.0 X60.4679 Y58.5707
G1 X68.2884 Y52.4473
G1 X69.2296 Y52.3929
G1 X68.2884 Y52.4473
G1 X56.1793 Y45.0422
G1 X54.7473 Y43.214
G1 X56.1793 Y45.0422
G1 X60.4679 Y58.5707
G1 X60.1897 Y59.4709
G0 Z0.0
G0 X79.4889 Y21.6381
G1 F200.0 Z-2.0
G1 F2000.0 X78.1405 Y19.7474
G1 X74.4641 Y6.0399
G1 X74.7825 Y5.1531
G1 X74.4641 Y6.0399
G1 X66.3763 Y11.8058
G1 X65.4336 Y11.8178
G1 X66.3763 Y11.8058
G1 X78.1405 Y19.7474
G1 X79.4889 Y21.6381
G1 F200.0 Z-3.0
G1 F2000.0 X78.1405 Y19.7474
G1 X74.4641 Y6.0399
G1 X74.7825 Y5.1531
G1 X74.4641 Y6.0399
G1 X66.3763 Y11.8058
G1 X65.4336 Y11.8178
G1 X66.3763 Y11.8058
G1 X78.1405 Y19.7474
G1 X79.4889 Y21.6381
G0 Z0.0
G0 X62.7278 Y49.0468
G0 Z-1.0
G1 F200.0 Z-3.0
G1 F2000.0 X56.1793 Y45.0422
G1 X54.7473 Y43.214
G1 X56.1793 Y45.0422
G1 X60.4679 Y58.5707
G1 X60.1897 Y59.4709
G1 X60.4679 Y58.5707
G1 X68.2884 Y52.4473
G1 X69.2296 Y52.3929
G1 X68.2884 Y52.4473
G1 X62.7278 Y49.0468
G0 Z0.0
G0 X123.0207 Y111.4874
G0 Z-1.0
G1 F200.0 Z-3.0
G1 F2000.0 X124.4527 Y113.3156
G1 X128.7413 Y126.8441
G1 X128.4631 Y127.7443
G1 X128.7413 Y126.8441
G1 X136.5618 Y120.7207
G1 X137.503 Y120.6663
G1 X136.5618 Y120.7207
G1 X124.4527 Y113.3156
G1 X123.0207 Y111.4874
G0 Z0.0
G0 X144.4094 Y98.9125
G0 Z-1.0
G1 F200.0 Z-3.0
G1 F2000.0 X145.3521 Y98.9005
G1 X157.1162 Y106.8421
G1 X158.4647 Y108.7329
G1 X157.1162 Y106.8421
G1 X153.4398 Y93.1347
G1 X153.7582 Y92.2479
G1 X153.4398 Y93.1347
G1 X145.3521 Y98.9005
G1 X144.4094 Y98.9125
G0 Z0.0
G0 X129.5793 Y158.6515
G0 Z-1.0
G1 F200.0 Z-3.0
G1 F2000.0 X128.7412 Y159.0821
G1 X118.8953 Y157.7728
G1 X118.1983 Y157.138
G1 X118.8953 Y157.7728
G1 X122.0685 Y171.6075
G1 X121.7628 Y173.9096
G1 X122.0685 Y171.6075
G1 X128.7412 Y159.0821
G1 X129.5793 Y158.6515
G0 Z0.0
G0 X97.9262 Y160.5639
G0 Z-1.0
G1 F200.0 Z-3.0
G1 F2000.0 X97.268 Y159.8889
G1 X94.919 Y145.8908
G1 X95.3604 Y143.6108
G1 X94.919 Y145.8908
G1 X87.5168 Y157.9994
G1 X86.6547 Y158.3796
G1 X87.5168 Y157.9994
G1 X97.268 Y159.8889
G1 X97.9262 Y160.5639
G0 Z0.0
G0 X64.4809 Y168.2456
G0 Z-1.0
G1 F200.0 Z-3.0
G1 F2000.0 X62.1637 Y168.0923
G1 X49.2256 Y162.26
G1 X48.7407 Y161.4521
G1 X49.2256 Y162.26
G1 X48.5684 Y172.1708
G1 X47.9809 Y172.9081
G1 X48.5684 Y172.1708
G1 X62.1637 Y168.0923
G1 X64.4809 Y168.2456
G0 Z0.0
G0 X33.0052 Y189.8731
G0 Z-1.0
G1 F200.0 Z-3.0
G1 F2000.0 X32.1026 Y190.1452
G1 X18.6018 Y185.7642
G1 X16.7833 Y184.3198
G1 X18.6018 Y185.7642
G1 X25.9234 Y197.9217
G1 X25.8625 Y198.8619
G1 X25.9234 Y197.9217
G1 X32.1026 Y190.1452
G1 X33.0052 Y189.8731
G0 Z0.0
G0 X85.2397 Y218.807
G0 Z-1.0
G1 F200.0 Z-3.0
G1 F2000.0 X84.7983 Y221.087
G1 X77.3961 Y233.1956
G1 X76.534 Y233.5758
G1 X77.3961 Y233.1956
G1 X87.1473 Y235.0851
G1 X87.8055 Y235.7601
G1 X87.1473 Y235.0851
G1 X84.7983 Y221.087
G1 X85.2397 Y218.807
G0 Z0.0
G0 X109.559 Y222.7443
G0 Z-1.0
G1 F200.0 Z-3.0
G1 F2000.0 X110.256 Y223.3792
G1 X113.4291 Y237.2138
G1 X113.1234 Y239.5159
G1 X113.4291 Y237.2138
G1 X120.1019 Y224.6884
G1 X120.94 Y224.2579
G1 X120.1019 Y224.6884
G1 X110.256 Y223.3792
G1 X109.559 Y222.7443
G0 Z0.0
G0 X184.3743 Y187.4183
G0 Z-1.0
G1 F200.0 Z-3.0
G1 F2000.0 X184.6525 Y186.5181
G1 X192.473 Y180.3947
G1 X193.4142 Y180.3403
G1 X192.473 Y180.3947
G1 X180.3639 Y172.9896
G1 X178.9319 Y171.1614
G1 X180.3639 Y172.9896
G1 X184.6525 Y186.5181
G1 X184.3743 Y187.4183
G0 Z0.0
G0 X203.4566 Y159.0669
G0 Z-1.0
G1 F200.0 Z-3.0
G1 F2000.0 X204.3993 Y159.0549
G1 X216.1635 Y166.9966
G1 X217.512 Y168.8873
G1 X216.1635 Y166.9966
G1 X212.4871 Y153.2891
G1 X212.8055 Y152.4023
G1 X212.4871 Y153.2891
G1 X204.3993 Y159.0549
G1 X203.4566 Y159.0669
G0 Z0.0
G0 X230.8313 Y257.7473
G0 Z-1.0
G1 F200.0 Z-3.0
G1 F2000.0 X229.9879 Y259.7541
G1 X220.1601 Y269.8641
G1 X219.1501 Y270.0908
G1 X220.1601 Y269.8641
G1 X229.6533 Y273.4161
G1 X230.1602 Y274.1665
G1 X229.6533 Y273.4161
G1 X229.9879 Y259.7541
G1 X230.8313 Y257.7473
G0 Z0.0
G0 X238.4004 Y304.3852
G0 Z-1.0
G1 F200.0 Z-3.0
G1 F2000.0 X239.0271 Y305.0895
G1 X240.7348 Y319.1802
G1 X240.1899 Y321.4377
G1 X240.7348 Y319.1802
G1 X248.6819 Y307.422
G1 X249.5605 Y307.0816
G1 X248.6819 Y307.422
G1 X239.0271 Y305.0895
G1 X238.4004 Y304.3852
G0 Z0.0
G0 X179.0139 Y378.6427
G0 Z-1.0
G1 F200.0 Z-3.0
G1 F2000.0 X176.6949 Y378.5194
G1 X163.6825 Y372.8546
G1 X163.1873 Y372.0531
G1 X163.6825 Y372.8546
G1 X163.1534 Y382.7731
G1 X162.5754 Y383.518
G1 X163.1534 Y382.7731
G1 X176.6949 Y378.5194
G1 X179.0139 Y378.6427
G0 Z0.0
G0 X179.073 Y398.5317
G0 Z-1.0
G1 F200.0 Z-3.0
G1 F2000.0 X178.5332 Y399.3047
G1 X165.2226 Y404.2334
G1 X162.9003 Y404.2268
G1 X165.2226 Y404.2334
G1 X178.5032 Y409.2372
G1 X179.0381 Y410.0129
G1 X178.5032 Y409.2372
G1 X178.5332 Y399.3047
G1 X179.073 Y398.5317
G0 Z0.0
G0 X99.0682 Y417.6261
G0 Z-1.0
G1 F200.0 Z-3.0
G1 F2000.0 X98.1271 Y417.6727
G1 X89.6972 Y412.4198
G1 X89.324 Y411.5541
G1 X89.6972 Y412.4198
G1 X86.8831 Y426.3319
G1 X85.6552 Y428.3031
G1 X86.8831 Y426.3319
G1 X98.1271 Y417.6727
G1 X99.0682 Y417.6261
G0 Z0.0
G0 X60.8092 Y417.2097
G0 Z-1.0
G1 F200.0 Z-3.0
G1 F2000.0 X59.5074 Y419.1328
G1 X47.9424 Y427.3585
G1 X47.0003 Y427.3694
G1 X47.9424 Y427.3585
G1 X56.1667 Y432.9279
G1 X56.5067 Y433.8073
G1 X56.1667 Y432.9279
G1 X59.5074 Y419.1328
G1 X60.8092 Y417.2097
G0 Z0.0
G0 X76.3106 Y346.5052
G0 Z-1.0
G1 F200.0 Z-3.0
G1 F2000.0 X75.6565 Y345.8263
G1 X73.3914 Y331.8143
G1 X73.8465 Y329.537
G1 X73.3914 Y331.8143
G1 X65.9168 Y343.8784
G1 X65.0524 Y344.2534
G1 X65.9168 Y343.8784
G1 X75.6565 Y345.8263
G1 X76.3106 Y346.5052
G0 Z0.0
G0 X100.315 Y340.9995
G0 Z-1.0
G1 F200.0 Z-3.0
G1 F2000.0 X101.9887 Y348.2965
G1 X101.683 Y350.5986
G1 X101.9887 Y348.2965
G1 X108.6615 Y335.7711
G1 X109.4996 Y335.3406
G1 X108.6615 Y335.7711
G1 X98.8156 Y334.4619
G1 X98.1186 Y333.827
G1 X98.8156 Y334.4619
G1 X100.315 Y340.9995
G1 F200.0 Z-4.0
G1 F2000.0 X101.9887 Y348.2965
G1 X101.683 Y350.5986
G1 X101.9887 Y348.2965
G1 X108.6615 Y335.7711
G1 X109.4996 Y335.3406
G1 X108.6615 Y335.7711
G1 X98.8156 Y334.4619
G1 X98.1186 Y333.827
G1 X98.8156 Y334.4619
G1 X100.315 Y340.9995
G0 Z0.0
G0 X76.3106 Y346.5052
G0 Z-2.0
G1 F200.0 Z-4.0
G1 F2000.0 X75.6565 Y345.8263
G1 X73.3914 Y331.8143
G1 X73.8465 Y329.537
G1 X73.3914 Y331.8143
G1 X65.9168 Y343.8784
G1 X65.0524 Y344.2534
G1 X65.9168 Y343.8784
G1 X75.6565 Y345.8263
G1 X76.3106 Y346.5052
G0 Z0.0
G0 X89.324 Y411.5541
G0 Z-2.0
G1 F200.0 Z-4.0
G1 F2000.0 X89.6972 Y412.4198
G1 X86.8831 Y426.3319
G1 X85.6552 Y428.3031
G1 X86.8831 Y426.3319
G1 X98.1271 Y417.6727
G1 X99.0682 Y417.6261
G1 X98.1271 Y417.6727
G1 X89.6972 Y412.4198
G1 X89.324 Y411.5541
G0 Z0.0
G0 X60.8092 Y417.2097
G0 Z-2.0
G1 F200.0 Z-4.0
G1 F2000.0 X59.5074 Y419.1328
G1 X47.9424 Y427.3585
G1 X47.0003 Y427.3694
G1 X47.9424 Y427.3585
G1 X56.1667 Y432.9279
G1 X56.5067 Y433.8073
G1 X56.1667 Y432.9279
G1 X59.5074 Y419.1328
G1 X60.8092 Y417.2097
G0 Z0.0
G0 X162.9003 Y404.2268
G0 Z-2.0
G1 F200.0 Z-4.0
G1 F2000.0 X165.2226 Y404.2334
G1 X178.5032 Y409.2372
G1 X179.0381 Y410.0129
G1 X178.5032 Y409.2372
G1 X178.5332 Y399.3047
G1 X179.073 Y398.5317
G1 X178.5332 Y399.3047
G1 X165.2226 Y404.2334
G1 X162.9003 Y404.2268
G0 Z0.0
G0 X162.5754 Y383.518
G0 Z-2.0
G1 F200.0 Z-4.0
G1 F2000.0 X163.1534 Y382.7731
G1 X176.6949 Y378.5194
G1 X179.0139 Y378.6427
G1 X176.6949 Y378.5194
G1 X163.6825 Y372.8546
G1 X163.1873 Y372.0531
G1 X163.6825 Y372.8546
G1 X163.1534 Y382.7731
G1 X162.5754 Y383.518
G0 Z0.0
G0 X240.1899 Y321.4377
G0 Z-2.0
G1 F200.0 Z-4.0
G1 F2000.0 X240.7348 Y319.1802
G1 X248.6819 Y307.422
G1 X249.5605 Y307.0816
G1 X248.6819 Y307.422
G1 X239.0271 Y305.0895
G1 X238.4004 Y304.3852
G1 X239.0271 Y305.0895
G1 X240.7348 Y319.1802
G1 X240.1899 Y321.4377
G0 Z0.0
G0 X230.1602 Y274.1665
G0 Z-2.0
G1 F200.0 Z-4.0
G1 F2000.0 X229.6533 Y273.4161
G1 X229.9879 Y259.7541
G1 X230.8313 Y257.7473
G1 X229.9879 Y259.7541
G1 X220.1601 Y269.8641
G1 X219.1501 Y270.0908
G1 X220.1601 Y269.8641
G1 X229.6533 Y273.4161
G1 X230.1602 Y274.1665
G0 Z0.0
G0 X184.3743 Y187.4183
G0 Z-2.0
G1 F200.0 Z-4.0
G1 F2000.0 X184.6525 Y186.5181
G1 X192.473 Y180.3947
G1 X193.4142 Y180.3403
G1 X192.473 Y180.3947
G1 X180.3639 Y172.9896
G1 X178.9319 Y171.1614
G1 X180.3639 Y172.9896
G1 X184.6525 Y186.5181
G1 X184.3743 Y187.4183
G0 Z0.0
G0 X203.4566 Y159.0669
G0 Z-2.0
G1 F200.0 Z-4.0
G1 F2000.0 X204.3993 Y159.0549
G1 X216.1635 Y166.9966
G1 X217.512 Y168.8873
G1 X216.1635 Y166.9966
G1 X212.4871 Y153.2891
G1 X212.8055 Y152.4023
G1 X212.4871 Y153.2891
G1 X204.3993 Y159.0549
G1 X203.4566 Y159.0669
G0 Z0.0
G0 X158.4647 Y108.7329
G0 Z-2.0
G1 F200.0 Z-4.0
G1 F2000.0 X157.1162 Y106.8421
G1 X153.4398 Y93.1347
G1 X153.7582 Y92.2479
G1 X153.4398 Y93.1347
G1 X145.3521 Y98.9005
G1 X144.4094 Y98.9125
G1 X145.3521 Y98.9005
G1 X157.1162 Y106.8421
G1 X158.4647 Y108.7329
G0 Z0.0
G0 X137.503 Y120.6663
G0 Z-2.0
G1 F200.0 Z-4.0
G1 F2000.0 X136.5618 Y120.7207
G1 X124.4527 Y113.3156
G1 X123.0207 Y111.4874
G1 X124.4527 Y113.3156
G1 X128.7413 Y126.8441
G1 X128.4631 Y127.7443
G1 X128.7413 Y126.8441
G1 X136.5618 Y120.7207
G1 X137.503 Y120.6663
G0 Z0.0
G0 X129.5793 Y158.6515
G0 Z-2.0
G1 F200.0 Z-4.0
G1 F2000.0 X128.7412 Y159.0821
G1 X118.8953 Y157.7728
G1 X118.1983 Y157.138
G1 X118.8953 Y157.7728
G1 X122.0685 Y171.6075
G1 X121.7628 Y173.9096
G1 X122.0685 Y171.6075
G1 X128.7412 Y159.0821
G1 X129.5793 Y158.6515
G0 Z0.0
G0 X97.9262 Y160.5639
G0 Z-2.0
G1 F200.0 Z-4.0
G1 F2000.0 X97.268 Y159.8889
G1 X94.919 Y145.8908
G1 X95.3604 Y143.6108
G1 X94.919 Y145.8908
G1 X87.5168 Y157.9994
G1 X86.6547 Y158.3796
G1 X87.5168 Y157.9994
G1 X97.268 Y159.8889
G1 X97.9262 Y160.5639
G0 Z0.0
G0 X64.4809 Y168.2456
G0 Z-2.0
G1 F200.0 Z-4.0
G1 F2000.0 X62.1637 Y168.0923
G1 X49.2256 Y162.26
G1 X48.7407 Y161.4521
G1 X49.2256 Y162.26
G1 X48.5684 Y172.1708
G1 X47.9809 Y172.9081
G1 X48.5684 Y172.1708
G1 X62.1637 Y168.0923
G1 X64.4809 Y168.2456
G0 Z0.0
G0 X33.0052 Y189.8731
G0 Z-2.0
G1 F200.0 Z-4.0
G1 F2000.0 X32.1026 Y190.1452
G1 X18.6018 Y185.7642
G1 X16.7833 Y184.3198
G1 X18.6018 Y185.7642
G1 X25.9234 Y197.9217
G1 X25.8625 Y198.8619
G1 X25.9234 Y197.9217
G1 X32.1026 Y190.1452
G1 X33.0052 Y189.8731
G0 Z0.0
G0 X85.2397 Y218.807
G0 Z-2.0
G1 F200.0 Z-4.0
G1 F2000.0 X84.7983 Y221.087
G1 X77.3961 Y233.1956
G1 X76.534 Y233.5758
G1 X77.3961 Y233.1956
G1 X87.1473 Y235.0851
G1 X87.8055 Y235.7601
G1 X87.1473 Y235.0851
G1 X84.7983 Y221.087
G1 X85.2397 Y218.807
G0 Z0.0
G0 X109.559 Y222.7443
G0 Z-2.0
G1 F200.0 Z-4.0
G1 F2000.0 X110.256 Y223.3792
G1 X113.4291 Y237.2138
G1 X113.1234 Y239.5159
G1 X113.4291 Y237.2138
G1 X120.1019 Y224.6884
G1 X120.94 Y224.2579
G1 X120.1019 Y224.6884
G1 X110.256 Y223.3792
G1 X109.559 Y222.7443
G0 Z0.0
G0 X60.1897 Y59.4709
G0 Z-2.0
G1 F200.0 Z-4.0
G1 F2000.0 X60.4679 Y58.5707
G1 X68.2884 Y52.4473
G1 X69.2296 Y52.3929
G1 X68.2884 Y52.4473
G1 X56.1793 Y45.0422
G1 X54.7473 Y43.214
G1 X56.1793 Y45.0422
G1 X60.4679 Y58.5707
G1 X60.1897 Y59.4709
G0 Z0.0
G0 X79.4889 Y21.6381
G0 Z-2.0
G1 F200.0 Z-4.0
G1 F2000.0 X78.1405 Y19.7474
G1 X74.4641 Y6.0399
G1 X74.7825 Y5.1531
G1 X74.4641 Y6.0399
G1 X66.3763 Y11.8058
G1 X65.4336 Y11.8178
G1 X66.3763 Y11.8058
G1 X78.1405 Y19.7474
G1 X79.4889 Y21.6381
G1 F200.0 Z-5.0
( gcode truncated )
( please support CamBam development by registering )
( www.cambam.info/shop )
( contour_int )
( contour_ext )
( Gravure1 )
G0 Z0.0
M30
