( Made using CamBam - http://www.cambam.info )
( Decoupe1 10/17/2015 6:52:15 PM )
( T0 : 2.5 )
G21 G90 G64 G40
G0 Z3.3
( T0 : 2.5 )
T0 M6
( trous )
G17
G0 X50.0778 Y52.048
G0 Z1.0
G1 F200.0 Z-1.0
G1 F2000.0 X51.6304 Y53.775
G1 X55.5011 Y63.6141
G1 X55.2845 Y64.5311
G1 X55.5011 Y63.6141
G1 X61.0049 Y58.6678
G1 X61.9403 Y58.5498
G1 X61.0049 Y58.6678
G1 X51.6304 Y53.775
G1 X50.0778 Y52.048
G0 Z3.3
G0 X68.2318 Y36.5202
G0 Z1.0
G1 F200.0 Z-1.0
G1 F2000.0 X69.1745 Y36.5302
G1 X77.7982 Y42.65
G1 X79.1021 Y44.5718
G1 X77.7982 Y42.65
G1 X75.2987 Y32.3766
G1 X75.6377 Y31.4975
G1 X75.2987 Y32.3766
G1 X69.1745 Y36.5302
G1 X68.2318 Y36.5202
G0 Z3.3
G0 X151.7677 Y77.5153
G0 Z1.0
G1 F200.0 Z-1.0
G1 F2000.0 X153.8183 Y76.4253
G1 X164.3007 Y75.0436
G1 X165.1384 Y75.4751
G1 X164.3007 Y75.0436
G1 X160.8289 Y68.5087
G1 X160.9401 Y67.5725
G1 X160.8289 Y68.5087
G1 X153.8183 Y76.4253
G1 X151.7677 Y77.5153
G0 Z3.3
G0 X151.6377 Y107.4975
G0 Z1.0
G1 F200.0 Z-1.0
G1 F2000.0 X151.2987 Y108.3766
G1 X145.1745 Y112.5302
G1 X144.2318 Y112.5202
G1 X145.1745 Y112.5302
G1 X153.7982 Y118.65
G1 X155.1021 Y120.5718
G1 X153.7982 Y118.65
G1 X151.2987 Y108.3766
G1 X151.6377 Y107.4975
G0 Z3.3
G0 X133.9403 Y135.5498
G0 Z1.0
G1 F200.0 Z-1.0
G1 F2000.0 X133.0049 Y135.6678
G1 X123.6304 Y130.775
G1 X122.0778 Y129.048
G1 X123.6304 Y130.775
G1 X127.5011 Y140.6141
G1 X127.2845 Y141.5311
G1 X127.5011 Y140.6141
G1 X133.0049 Y135.6678
G1 X133.9403 Y135.5498
G0 Z3.3
G0 X121.0036 Y170.3739
G0 Z1.0
G1 F200.0 Z-1.0
G1 F2000.0 X120.1655 Y170.8045
G1 X112.7366 Y169.8166
G1 X112.0396 Y169.1818
G1 X112.7366 Y169.8166
G1 X115.1308 Y180.2551
G1 X114.8251 Y182.5572
G1 X115.1308 Y180.2551
G1 X120.1655 Y170.8045
G1 X121.0036 Y170.3739
G0 Z3.3
G0 X92.8646 Y180.2272
G0 Z1.0
G1 F200.0 Z-1.0
G1 F2000.0 X92.2064 Y179.5522
G1 X90.4086 Y168.8384
G1 X90.8499 Y166.5585
G1 X90.4086 Y168.8384
G1 X84.7431 Y178.106
G1 X83.881 Y178.4862
G1 X84.7431 Y178.106
G1 X92.2064 Y179.5522
G1 X92.8646 Y180.2272
G0 Z3.3
G0 X31.7573 Y190.5329
G0 Z1.0
G1 F200.0 Z-1.0
G1 F2000.0 X29.8271 Y189.2416
G1 X24.919 Y182.4199
G1 X24.903 Y181.4778
G1 X24.919 Y182.4199
G1 X21.6476 Y187.3078
G1 X20.7701 Y187.6526
G1 X21.6476 Y187.3078
G1 X29.8271 Y189.2416
G1 X31.7573 Y190.5329
G0 Z3.3
G0 X20.9925 Y207.5386
G0 Z1.0
G1 F200.0 Z-1.0
G1 F2000.0 X20.0898 Y207.8107
G1 X12.7711 Y205.4358
G1 X10.9527 Y203.9914
G1 X12.7711 Y205.4358
G1 X16.7401 Y212.0263
G1 X16.6792 Y212.9666
G1 X16.7401 Y212.0263
G1 X20.0898 Y207.8107
G1 X20.9925 Y207.5386
G0 Z3.3
G0 X83.3976 Y244.7081
G0 Z1.0
G1 F200.0 Z-1.0
G1 F2000.0 X82.9562 Y246.9881
G1 X77.2908 Y256.2557
G1 X76.4287 Y256.6359
G1 X77.2908 Y256.2557
G1 X84.7541 Y257.7019
G1 X85.4123 Y258.3768
G1 X84.7541 Y257.7019
G1 X82.9562 Y246.9881
G1 X83.3976 Y244.7081
G0 Z3.3
G0 X104.0396 Y248.1818
G0 Z1.0
G1 F200.0 Z-1.0
G1 F2000.0 X104.7366 Y248.8166
G1 X107.1308 Y259.2551
G1 X106.8251 Y261.5572
G1 X107.1308 Y259.2551
G1 X112.1655 Y249.8045
G1 X113.0036 Y249.3739
G1 X112.1655 Y249.8045
G1 X104.7366 Y248.8166
G1 X104.0396 Y248.1818
G0 Z3.3
G0 X191.2845 Y205.5311
G0 Z1.0
G1 F200.0 Z-1.0
G1 F2000.0 X191.5011 Y204.6141
G1 X197.0049 Y199.6678
G1 X197.9403 Y199.5498
G1 X197.0049 Y199.6678
G1 X187.6304 Y194.775
G1 X186.0778 Y193.048
G1 X187.6304 Y194.775
G1 X191.5011 Y204.6141
G1 X191.2845 Y205.5311
G0 Z3.3
G0 X204.2318 Y177.5202
G0 Z1.0
G1 F200.0 Z-1.0
G1 F2000.0 X205.1745 Y177.5302
G1 X213.7982 Y183.65
G1 X215.1021 Y185.5718
G1 X213.7982 Y183.65
G1 X211.2987 Y173.3766
G1 X211.6377 Y172.4975
G1 X211.2987 Y173.3766
G1 X205.1745 Y177.5302
G1 X204.2318 Y177.5202
G0 Z3.3
G0 X243.6191 Y291.4229
G0 Z1.0
G1 F200.0 Z-1.0
G1 F2000.0 X242.7757 Y293.4298
G1 X235.3331 Y301.0861
G1 X234.3231 Y301.3127
G1 X235.3331 Y301.0861
G1 X242.5224 Y303.776
G1 X243.0293 Y304.5263
G1 X242.5224 Y303.776
G1 X242.7757 Y293.4298
G1 X243.6191 Y291.4229
G0 Z3.3
G0 X259.1525 Y295.9593
G0 Z1.0
G1 F200.0 Z-1.0
G1 F2000.0 X259.7793 Y296.6636
G1 X261.1055 Y307.6069
G1 X260.5606 Y309.8644
G1 X261.1055 Y307.6069
G1 X267.2775 Y298.4751
G1 X268.156 Y298.1347
G1 X267.2775 Y298.4751
G1 X259.7793 Y296.6636
G1 X259.1525 Y295.9593
G0 Z3.3
G0 X197.6358 Y388.5574
G0 Z1.0
G1 F200.0 Z-1.0
G1 F2000.0 X196.6169 Y389.8229
G1 X193.274 Y391.4092
G3 X192.0931 Y391.3507 I-0.5359 J-1.1293
G1 X188.8951 Y389.4242
G1 X188.0064 Y388.064
G1 X188.8951 Y389.4242
G1 X189.3708 Y393.0936
G3 X188.9502 Y394.1986 I-1.2396 J0.1607
G1 X186.1298 Y396.6447
G1 X184.5616 Y397.0696
G1 X186.1298 Y396.6447
G1 X189.7666 Y397.3263
G3 X190.6876 Y398.0678 I-0.2302 J1.2286
G1 X192.1424 Y401.506
G1 X192.0619 Y403.1288
G1 X192.1424 Y401.506
G1 X193.9144 Y398.2578
G3 X194.9042 Y397.611 I1.0973 J0.5986
G1 X198.6238 Y397.2899
G1 X200.1422 Y397.8679
G1 X198.6238 Y397.2899
G1 X196.0821 Y394.6009
G3 X195.7729 Y393.4596 I0.9084 J-0.8586
G1 X196.6169 Y389.8229
G1 X197.6358 Y388.5574
G0 Z3.3
G0 X177.487 Y423.2318
G0 Z1.0
G1 F200.0 Z-1.0
G1 F2000.0 X175.168 Y423.1085
G1 X165.4737 Y418.8881
G1 X164.9784 Y418.0866
G1 X165.4737 Y418.8881
G1 X165.0795 Y426.2775
G1 X164.5015 Y427.0224
G1 X165.0795 Y426.2775
G1 X175.168 Y423.1085
G1 X177.487 Y423.2318
G0 Z3.3
G0 X175.8594 Y439.1232
G0 Z1.0
G1 F200.0 Z-1.0
G1 F2000.0 X175.3196 Y439.8962
G1 X165.1474 Y443.6628
G1 X162.8251 Y443.6562
G1 X165.1474 Y443.6628
G1 X175.2967 Y447.4869
G1 X175.8316 Y448.2625
G1 X175.2967 Y447.4869
G1 X175.3196 Y439.8962
G1 X175.8594 Y439.1232
G0 Z3.3
G0 X90.7971 Y385.0857
G0 Z1.0
G1 F200.0 Z-1.0
G1 F2000.0 X91.1028 Y382.7836
G1 X96.1375 Y373.333
G1 X96.9756 Y372.9024
G1 X96.1375 Y373.333
G1 X88.7086 Y372.3451
G1 X88.0116 Y371.7103
G1 X88.7086 Y372.3451
G1 X91.1028 Y382.7836
G1 X90.7971 Y385.0857
G0 Z3.3
G0 X72.9515 Y383.3865
G0 Z1.0
G1 F200.0 Z-1.0
G1 F2000.0 X72.2973 Y382.7076
G1 X70.5607 Y371.9646
G1 X71.0157 Y369.6873
G1 X70.5607 Y371.9646
G1 X64.8299 Y381.2141
G1 X63.9655 Y381.5891
G1 X64.8299 Y381.2141
G1 X72.2973 Y382.7076
G1 X72.9515 Y383.3865
G0 Z3.3
G0 X51.9643 Y465.6637
G0 Z1.0
G1 F200.0 Z-1.0
G1 F2000.0 X50.6625 Y467.5868
G1 X43.8571 Y472.4272
G1 X42.9149 Y472.4381
G1 X43.8571 Y472.4272
G1 X48.6966 Y475.7045
G1 X49.0366 Y476.5839
G1 X48.6966 Y475.7045
G1 X50.6625 Y467.5868
G1 X51.9643 Y465.6637
G0 Z3.3
G0 X71.5596 Y473.8056
G0 Z1.0
G1 F200.0 Z-1.0
G1 F2000.0 X71.9327 Y474.6714
G1 X70.2004 Y483.2356
G1 X68.9725 Y485.2068
G1 X70.2004 Y483.2356
G1 X77.1221 Y477.905
G1 X78.0632 Y477.8584
G1 X77.1221 Y477.905
G1 X71.9327 Y474.6714
G1 X71.5596 Y473.8056
G1 F200.0 Z-2.0
G1 F2000.0 X71.9327 Y474.6714
G1 X70.2004 Y483.2356
G1 X68.9725 Y485.2068
G1 X70.2004 Y483.2356
G1 X77.1221 Y477.905
G1 X78.0632 Y477.8584
G1 X77.1221 Y477.905
G1 X71.9327 Y474.6714
G1 X71.5596 Y473.8056
G0 Z3.3
G0 X51.9643 Y465.6637
G0 Z0.0
G1 F200.0 Z-2.0
G1 F2000.0 X50.6625 Y467.5868
G1 X43.8571 Y472.4272
G1 X42.9149 Y472.4381
G1 X43.8571 Y472.4272
G1 X48.6966 Y475.7045
G1 X49.0366 Y476.5839
G1 X48.6966 Y475.7045
G1 X50.6625 Y467.5868
G1 X51.9643 Y465.6637
G0 Z3.3
G0 X72.9515 Y383.3865
G0 Z0.0
G1 F200.0 Z-2.0
G1 F2000.0 X72.2973 Y382.7076
G1 X70.5607 Y371.9646
G1 X71.0157 Y369.6873
G1 X70.5607 Y371.9646
G1 X64.8299 Y381.2141
G1 X63.9655 Y381.5891
G1 X64.8299 Y381.2141
G1 X72.2973 Y382.7076
G1 X72.9515 Y383.3865
G0 Z3.3
G0 X90.327 Y379.4012
G0 Z0.0
G1 F200.0 Z-2.0
G1 F2000.0 X91.1028 Y382.7836
G1 X90.7971 Y385.0857
G1 X91.1028 Y382.7836
G1 X96.1375 Y373.333
G1 X96.9756 Y372.9024
G1 X96.1375 Y373.333
G1 X88.7086 Y372.3451
G1 X88.0116 Y371.7103
G1 X88.7086 Y372.3451
G1 X90.327 Y379.4012
G0 Z3.3
G0 X164.9784 Y418.0866
G0 Z0.0
G1 F200.0 Z-2.0
G1 F2000.0 X165.4737 Y418.8881
G1 X165.0795 Y426.2775
G1 X164.5015 Y427.0224
G1 X165.0795 Y426.2775
G1 X175.168 Y423.1085
G1 X177.487 Y423.2318
G1 X175.168 Y423.1085
G1 X165.4737 Y418.8881
G1 X164.9784 Y418.0866
G0 Z3.3
G0 X175.8594 Y439.1232
G0 Z0.0
G1 F200.0 Z-2.0
G1 F2000.0 X175.3196 Y439.8962
G1 X165.1474 Y443.6628
G1 X162.8251 Y443.6562
G1 X165.1474 Y443.6628
G1 X175.2967 Y447.4869
G1 X175.8316 Y448.2625
G1 X175.2967 Y447.4869
G1 X175.3196 Y439.8962
G1 X175.8594 Y439.1232
G0 Z3.3
G0 X192.0619 Y403.1288
G0 Z0.0
G1 F200.0 Z-2.0
G1 F2000.0 X192.1424 Y401.506
G1 X193.9144 Y398.2578
G3 X194.9042 Y397.611 I1.0973 J0.5986
G1 X198.6238 Y397.2899
G1 X200.1422 Y397.8679
G1 X198.6238 Y397.2899
G1 X196.0821 Y394.6009
G3 X195.7729 Y393.4596 I0.9084 J-0.8586
G1 X196.6169 Y389.8229
G1 X197.6358 Y388.5574
G1 X196.6169 Y389.8229
G1 X193.274 Y391.4092
G3 X192.0931 Y391.3507 I-0.5359 J-1.1293
G1 X188.8951 Y389.4242
G1 X188.0064 Y388.064
G1 X188.8951 Y389.4242
G1 X189.3708 Y393.0936
G3 X188.9502 Y394.1986 I-1.2396 J0.1607
G1 X186.1298 Y396.6447
G1 X184.5616 Y397.0696
G1 X186.1298 Y396.6447
G1 X189.7666 Y397.3263
G3 X190.6876 Y398.0678 I-0.2302 J1.2286
G1 X192.1424 Y401.506
G1 X192.0619 Y403.1288
G0 Z3.3
G0 X234.3231 Y301.3127
G0 Z0.0
G1 F200.0 Z-2.0
G1 F2000.0 X235.3331 Y301.0861
G1 X242.5224 Y303.776
G1 X243.0293 Y304.5263
G1 X242.5224 Y303.776
G1 X242.7757 Y293.4298
G1 X243.6191 Y291.4229
G1 X242.7757 Y293.4298
G1 X235.3331 Y301.0861
G1 X234.3231 Y301.3127
G0 Z3.3
G0 X259.1525 Y295.9593
G0 Z0.0
G1 F200.0 Z-2.0
G1 F2000.0 X259.7793 Y296.6636
G1 X261.1055 Y307.6069
G1 X260.5606 Y309.8644
G1 X261.1055 Y307.6069
G1 X267.2775 Y298.4751
G1 X268.156 Y298.1347
G1 X267.2775 Y298.4751
G1 X259.7793 Y296.6636
G1 X259.1525 Y295.9593
G0 Z3.3
G0 X191.2845 Y205.5311
G0 Z0.0
G1 F200.0 Z-2.0
G1 F2000.0 X191.5011 Y204.6141
G1 X197.0049 Y199.6678
G1 X197.9403 Y199.5498
G1 X197.0049 Y199.6678
G1 X187.6304 Y194.775
G1 X186.0778 Y193.048
G1 X187.6304 Y194.775
G1 X191.5011 Y204.6141
G1 X191.2845 Y205.5311
G0 Z3.3
G0 X204.2318 Y177.5202
G0 Z0.0
G1 F200.0 Z-2.0
G1 F2000.0 X205.1745 Y177.5302
G1 X213.7982 Y183.65
G1 X215.1021 Y185.5718
G1 X213.7982 Y183.65
G1 X211.2987 Y173.3766
G1 X211.6377 Y172.4975
G1 X211.2987 Y173.3766
G1 X205.1745 Y177.5302
G1 X204.2318 Y177.5202
G0 Z3.3
G0 X155.1021 Y120.5718
G0 Z0.0
G1 F200.0 Z-2.0
G1 F2000.0 X153.7982 Y118.65
G1 X151.2987 Y108.3766
G1 X151.6377 Y107.4975
G1 X151.2987 Y108.3766
G1 X145.1745 Y112.5302
G1 X144.2318 Y112.5202
G1 X145.1745 Y112.5302
G1 X153.7982 Y118.65
G1 X155.1021 Y120.5718
G0 Z3.3
G0 X133.9403 Y135.5498
G0 Z0.0
G1 F200.0 Z-2.0
G1 F2000.0 X133.0049 Y135.6678
G1 X123.6304 Y130.775
G1 X122.0778 Y129.048
G1 X123.6304 Y130.775
G1 X127.5011 Y140.6141
G1 X127.2845 Y141.5311
G1 X127.5011 Y140.6141
G1 X133.0049 Y135.6678
G1 X133.9403 Y135.5498
G0 Z3.3
G0 X121.0036 Y170.3739
G0 Z0.0
G1 F200.0 Z-2.0
G1 F2000.0 X120.1655 Y170.8045
G1 X112.7366 Y169.8166
G1 X112.0396 Y169.1818
G1 X112.7366 Y169.8166
G1 X115.1308 Y180.2551
G1 X114.8251 Y182.5572
G1 X115.1308 Y180.2551
G1 X120.1655 Y170.8045
G1 X121.0036 Y170.3739
G0 Z3.3
G0 X92.8646 Y180.2272
G0 Z0.0
G1 F200.0 Z-2.0
G1 F2000.0 X92.2064 Y179.5522
G1 X90.4086 Y168.8384
G1 X90.8499 Y166.5585
G1 X90.4086 Y168.8384
G1 X84.7431 Y178.106
G1 X83.881 Y178.4862
G1 X84.7431 Y178.106
G1 X92.2064 Y179.5522
G1 X92.8646 Y180.2272
G0 Z3.3
G0 X31.7573 Y190.5329
G0 Z0.0
G1 F200.0 Z-2.0
G1 F2000.0 X29.8271 Y189.2416
G1 X24.919 Y182.4199
G1 X24.903 Y181.4778
G1 X24.919 Y182.4199
G1 X21.6476 Y187.3078
G1 X20.7701 Y187.6526
G1 X21.6476 Y187.3078
G1 X29.8271 Y189.2416
G1 X31.7573 Y190.5329
G0 Z3.3
G0 X20.9925 Y207.5386
G0 Z0.0
G1 F200.0 Z-2.0
G1 F2000.0 X20.0898 Y207.8107
G1 X12.7711 Y205.4358
G1 X10.9527 Y203.9914
G1 X12.7711 Y205.4358
G1 X16.7401 Y212.0263
G1 X16.6792 Y212.9666
G1 X16.7401 Y212.0263
G1 X20.0898 Y207.8107
G1 X20.9925 Y207.5386
G0 Z3.3
G0 X83.3976 Y244.7081
G0 Z0.0
G1 F200.0 Z-2.0
G1 F2000.0 X82.9562 Y246.9881
G1 X77.2908 Y256.2557
G1 X76.4287 Y256.6359
G1 X77.2908 Y256.2557
G1 X84.7541 Y257.7019
G1 X85.4123 Y258.3768
G1 X84.7541 Y257.7019
G1 X82.9562 Y246.9881
G1 X83.3976 Y244.7081
G0 Z3.3
G0 X104.0396 Y248.1818
G0 Z0.0
G1 F200.0 Z-2.0
G1 F2000.0 X104.7366 Y248.8166
G1 X107.1308 Y259.2551
G1 X106.8251 Y261.5572
G1 X107.1308 Y259.2551
G1 X112.1655 Y249.8045
G1 X113.0036 Y249.3739
G1 X112.1655 Y249.8045
G1 X104.7366 Y248.8166
G1 X104.0396 Y248.1818
G0 Z3.3
G0 X151.7677 Y77.5153
G0 Z0.0
G1 F200.0 Z-2.0
G1 F2000.0 X153.8183 Y76.4253
G1 X164.3007 Y75.0436
G1 X165.1384 Y75.4751
G1 X164.3007 Y75.0436
G1 X160.8289 Y68.5087
G1 X160.9401 Y67.5725
G1 X160.8289 Y68.5087
G1 X153.8183 Y76.4253
G1 X151.7677 Y77.5153
G0 Z3.3
G0 X79.1021 Y44.5718
G0 Z0.0
G1 F200.0 Z-2.0
G1 F2000.0 X77.7982 Y42.65
G1 X75.2987 Y32.3766
G1 X75.6377 Y31.4975
G1 X75.2987 Y32.3766
G1 X69.1745 Y36.5302
G1 X68.2318 Y36.5202
G1 X69.1745 Y36.5302
G1 X77.7982 Y42.65
G1 X79.1021 Y44.5718
G0 Z3.3
G0 X61.9403 Y58.5498
G0 Z0.0
G1 F200.0 Z-2.0
G1 F2000.0 X61.0049 Y58.6678
G1 X51.6304 Y53.775
G1 X50.0778 Y52.048
G1 X51.6304 Y53.775
G1 X55.5011 Y63.6141
G1 X55.2845 Y64.5311
G1 X55.5011 Y63.6141
G1 X61.0049 Y58.6678
G1 X61.9403 Y58.5498
G1 F200.0 Z-3.0
G1 F2000.0 X61.0049 Y58.6678
G1 X51.6304 Y53.775
G1 X50.0778 Y52.048
G1 X51.6304 Y53.775
G1 X55.5011 Y63.6141
G1 X55.2845 Y64.5311
G1 X55.5011 Y63.6141
G1 X61.0049 Y58.6678
G1 X61.9403 Y58.5498
G0 Z3.3
G0 X79.1021 Y44.5718
G0 Z-1.0
G1 F200.0 Z-3.0
G1 F2000.0 X77.7982 Y42.65
G1 X75.2987 Y32.3766
G1 X75.6377 Y31.4975
G1 X75.2987 Y32.3766
G1 X69.1745 Y36.5302
G1 X68.2318 Y36.5202
G1 X69.1745 Y36.5302
G1 X77.7982 Y42.65
G1 X79.1021 Y44.5718
G0 Z3.3
G0 X151.7677 Y77.5153
G0 Z-1.0
G1 F200.0 Z-3.0
G1 F2000.0 X153.8183 Y76.4253
G1 X164.3007 Y75.0436
G1 X165.1384 Y75.4751
G1 X164.3007 Y75.0436
G1 X160.8289 Y68.5087
G1 X160.9401 Y67.5725
G1 X160.8289 Y68.5087
G1 X153.8183 Y76.4253
G1 X151.7677 Y77.5153
G0 Z3.3
G0 X151.6377 Y107.4975
G0 Z-1.0
G1 F200.0 Z-3.0
G1 F2000.0 X151.2987 Y108.3766
G1 X145.1745 Y112.5302
G1 X144.2318 Y112.5202
G1 X145.1745 Y112.5302
G1 X153.7982 Y118.65
G1 X155.1021 Y120.5718
G1 X153.7982 Y118.65
G1 X151.2987 Y108.3766
G1 X151.6377 Y107.4975
G0 Z3.3
G0 X133.9403 Y135.5498
G0 Z-1.0
G1 F200.0 Z-3.0
G1 F2000.0 X133.0049 Y135.6678
G1 X123.6304 Y130.775
G1 X122.0778 Y129.048
G1 X123.6304 Y130.775
G1 X127.5011 Y140.6141
G1 X127.2845 Y141.5311
G1 X127.5011 Y140.6141
G1 X133.0049 Y135.6678
G1 X133.9403 Y135.5498
G0 Z3.3
G0 X121.0036 Y170.3739
G0 Z-1.0
G1 F200.0 Z-3.0
G1 F2000.0 X120.1655 Y170.8045
G1 X112.7366 Y169.8166
G1 X112.0396 Y169.1818
G1 X112.7366 Y169.8166
G1 X115.1308 Y180.2551
G1 X114.8251 Y182.5572
G1 X115.1308 Y180.2551
G1 X120.1655 Y170.8045
G1 X121.0036 Y170.3739
G0 Z3.3
G0 X92.8646 Y180.2272
G0 Z-1.0
G1 F200.0 Z-3.0
G1 F2000.0 X92.2064 Y179.5522
G1 X90.4086 Y168.8384
G1 X90.8499 Y166.5585
G1 X90.4086 Y168.8384
G1 X84.7431 Y178.106
G1 X83.881 Y178.4862
G1 X84.7431 Y178.106
G1 X92.2064 Y179.5522
G1 X92.8646 Y180.2272
G0 Z3.3
G0 X31.7573 Y190.5329
G0 Z-1.0
G1 F200.0 Z-3.0
G1 F2000.0 X29.8271 Y189.2416
G1 X24.919 Y182.4199
G1 X24.903 Y181.4778
G1 X24.919 Y182.4199
G1 X21.6476 Y187.3078
G1 X20.7701 Y187.6526
G1 X21.6476 Y187.3078
G1 X29.8271 Y189.2416
G1 X31.7573 Y190.5329
G0 Z3.3
G0 X20.9925 Y207.5386
G0 Z-1.0
G1 F200.0 Z-3.0
G1 F2000.0 X20.0898 Y207.8107
G1 X12.7711 Y205.4358
G1 X10.9527 Y203.9914
G1 X12.7711 Y205.4358
G1 X16.7401 Y212.0263
G1 X16.6792 Y212.9666
G1 X16.7401 Y212.0263
G1 X20.0898 Y207.8107
G1 X20.9925 Y207.5386
G0 Z3.3
G0 X83.3976 Y244.7081
G0 Z-1.0
G1 F200.0 Z-3.0
G1 F2000.0 X82.9562 Y246.9881
G1 X77.2908 Y256.2557
G1 X76.4287 Y256.6359
G1 X77.2908 Y256.2557
G1 X84.7541 Y257.7019
G1 X85.4123 Y258.3768
G1 X84.7541 Y257.7019
G1 X82.9562 Y246.9881
G1 X83.3976 Y244.7081
G0 Z3.3
G0 X104.0396 Y248.1818
G0 Z-1.0
G1 F200.0 Z-3.0
G1 F2000.0 X104.7366 Y248.8166
G1 X107.1308 Y259.2551
G1 X106.8251 Y261.5572
G1 X107.1308 Y259.2551
G1 X112.1655 Y249.8045
G1 X113.0036 Y249.3739
G1 X112.1655 Y249.8045
G1 X104.7366 Y248.8166
G1 X104.0396 Y248.1818
G0 Z3.3
G0 X191.2845 Y205.5311
G0 Z-1.0
G1 F200.0 Z-3.0
G1 F2000.0 X191.5011 Y204.6141
G1 X197.0049 Y199.6678
G1 X197.9403 Y199.5498
G1 X197.0049 Y199.6678
G1 X187.6304 Y194.775
G1 X186.0778 Y193.048
G1 X187.6304 Y194.775
G1 X191.5011 Y204.6141
G1 X191.2845 Y205.5311
G0 Z3.3
G0 X204.2318 Y177.5202
G0 Z-1.0
G1 F200.0 Z-3.0
G1 F2000.0 X205.1745 Y177.5302
G1 X213.7982 Y183.65
G1 X215.1021 Y185.5718
G1 X213.7982 Y183.65
G1 X211.2987 Y173.3766
G1 X211.6377 Y172.4975
G1 X211.2987 Y173.3766
G1 X205.1745 Y177.5302
G1 X204.2318 Y177.5202
G0 Z3.3
G0 X243.6191 Y291.4229
G0 Z-1.0
G1 F200.0 Z-3.0
G1 F2000.0 X242.7757 Y293.4298
G1 X235.3331 Y301.0861
G1 X234.3231 Y301.3127
G1 X235.3331 Y301.0861
G1 X242.5224 Y303.776
G1 X243.0293 Y304.5263
G1 X242.5224 Y303.776
G1 X242.7757 Y293.4298
G1 X243.6191 Y291.4229
G0 Z3.3
G0 X259.1525 Y295.9593
G0 Z-1.0
G1 F200.0 Z-3.0
G1 F2000.0 X259.7793 Y296.6636
G1 X261.1055 Y307.6069
G1 X260.5606 Y309.8644
G1 X261.1055 Y307.6069
G1 X267.2775 Y298.4751
G1 X268.156 Y298.1347
G1 X267.2775 Y298.4751
G1 X259.7793 Y296.6636
G1 X259.1525 Y295.9593
G0 Z3.3
G0 X197.6358 Y388.5574
G0 Z-1.0
G1 F200.0 Z-3.0
G1 F2000.0 X196.6169 Y389.8229
G1 X193.274 Y391.4092
G3 X192.0931 Y391.3507 I-0.5359 J-1.1293
G1 X188.8951 Y389.4242
G1 X188.0064 Y388.064
G1 X188.8951 Y389.4242
G1 X189.3708 Y393.0936
G3 X188.9502 Y394.1986 I-1.2396 J0.1607
G1 X186.1298 Y396.6447
G1 X184.5616 Y397.0696
G1 X186.1298 Y396.6447
G1 X189.7666 Y397.3263
G3 X190.6876 Y398.0678 I-0.2302 J1.2286
G1 X192.1424 Y401.506
G1 X192.0619 Y403.1288
G1 X192.1424 Y401.506
G1 X193.9144 Y398.2578
G3 X194.9042 Y397.611 I1.0973 J0.5986
G1 X198.6238 Y397.2899
G1 X200.1422 Y397.8679
G1 X198.6238 Y397.2899
G1 X196.0821 Y394.6009
G3 X195.7729 Y393.4596 I0.9084 J-0.8586
G1 X196.6169 Y389.8229
G1 X197.6358 Y388.5574
G0 Z3.3
G0 X177.487 Y423.2318
G0 Z-1.0
G1 F200.0 Z-3.0
G1 F2000.0 X175.168 Y423.1085
G1 X165.4737 Y418.8881
G1 X164.9784 Y418.0866
G1 X165.4737 Y418.8881
G1 X165.0795 Y426.2775
G1 X164.5015 Y427.0224
G1 X165.0795 Y426.2775
G1 X175.168 Y423.1085
G1 X177.487 Y423.2318
G0 Z3.3
G0 X175.8594 Y439.1232
G0 Z-1.0
G1 F200.0 Z-3.0
G1 F2000.0 X175.3196 Y439.8962
G1 X165.1474 Y443.6628
G1 X162.8251 Y443.6562
G1 X165.1474 Y443.6628
G1 X175.2967 Y447.4869
G1 X175.8316 Y448.2625
G1 X175.2967 Y447.4869
G1 X175.3196 Y439.8962
G1 X175.8594 Y439.1232
G0 Z3.3
G0 X90.7971 Y385.0857
G0 Z-1.0
G1 F200.0 Z-3.0
G1 F2000.0 X91.1028 Y382.7836
G1 X96.1375 Y373.333
G1 X96.9756 Y372.9024
G1 X96.1375 Y373.333
G1 X88.7086 Y372.3451
G1 X88.0116 Y371.7103
G1 X88.7086 Y372.3451
G1 X91.1028 Y382.7836
G1 X90.7971 Y385.0857
G0 Z3.3
G0 X72.9515 Y383.3865
G0 Z-1.0
G1 F200.0 Z-3.0
G1 F2000.0 X72.2973 Y382.7076
G1 X70.5607 Y371.9646
G1 X71.0157 Y369.6873
G1 X70.5607 Y371.9646
G1 X64.8299 Y381.2141
G1 X63.9655 Y381.5891
G1 X64.8299 Y381.2141
G1 X72.2973 Y382.7076
G1 X72.9515 Y383.3865
G0 Z3.3
G0 X51.9643 Y465.6637
G0 Z-1.0
G1 F200.0 Z-3.0
G1 F2000.0 X50.6625 Y467.5868
G1 X43.8571 Y472.4272
G1 X42.9149 Y472.4381
G1 X43.8571 Y472.4272
G1 X48.6966 Y475.7045
G1 X49.0366 Y476.5839
G1 X48.6966 Y475.7045
G1 X50.6625 Y467.5868
G1 X51.9643 Y465.6637
G0 Z3.3
G0 X71.5596 Y473.8056
G0 Z-1.0
G1 F200.0 Z-3.0
G1 F2000.0 X71.9327 Y474.6714
G1 X70.2004 Y483.2356
G1 X68.9725 Y485.2068
G1 X70.2004 Y483.2356
G1 X77.1221 Y477.905
G1 X78.0632 Y477.8584
G1 X77.1221 Y477.905
G1 X71.9327 Y474.6714
G1 X71.5596 Y473.8056
G1 F200.0 Z-4.0
G1 F2000.0 X71.9327 Y474.6714
G1 X70.2004 Y483.2356
G1 X68.9725 Y485.2068
G1 X70.2004 Y483.2356
G1 X77.1221 Y477.905
G1 X78.0632 Y477.8584
G1 X77.1221 Y477.905
G1 X71.9327 Y474.6714
G1 X71.5596 Y473.8056
G0 Z3.3
G0 X51.9643 Y465.6637
G0 Z-2.0
G1 F200.0 Z-4.0
G1 F2000.0 X50.6625 Y467.5868
G1 X43.8571 Y472.4272
G1 X42.9149 Y472.4381
G1 X43.8571 Y472.4272
G1 X48.6966 Y475.7045
G1 X49.0366 Y476.5839
G1 X48.6966 Y475.7045
G1 X50.6625 Y467.5868
G1 X51.9643 Y465.6637
G0 Z3.3
G0 X72.9515 Y383.3865
G0 Z-2.0
G1 F200.0 Z-4.0
G1 F2000.0 X72.2973 Y382.7076
G1 X70.5607 Y371.9646
G1 X71.0157 Y369.6873
G1 X70.5607 Y371.9646
G1 X64.8299 Y381.2141
G1 X63.9655 Y381.5891
G1 X64.8299 Y381.2141
G1 X72.2973 Y382.7076
G1 X72.9515 Y383.3865
G0 Z3.3
G0 X90.327 Y379.4012
G0 Z-2.0
G1 F200.0 Z-4.0
G1 F2000.0 X91.1028 Y382.7836
G1 X90.7971 Y385.0857
G1 X91.1028 Y382.7836
G1 X96.1375 Y373.333
G1 X96.9756 Y372.9024
G1 X96.1375 Y373.333
G1 X88.7086 Y372.3451
G1 X88.0116 Y371.7103
G1 X88.7086 Y372.3451
G1 X90.327 Y379.4012
G0 Z3.3
G0 X164.9784 Y418.0866
G0 Z-2.0
G1 F200.0 Z-4.0
G1 F2000.0 X165.4737 Y418.8881
G1 X165.0795 Y426.2775
G1 X164.5015 Y427.0224
G1 X165.0795 Y426.2775
G1 X175.168 Y423.1085
G1 X177.487 Y423.2318
G1 X175.168 Y423.1085
G1 X165.4737 Y418.8881
G1 X164.9784 Y418.0866
G0 Z3.3
G0 X175.8594 Y439.1232
G0 Z-2.0
G1 F200.0 Z-4.0
G1 F2000.0 X175.3196 Y439.8962
G1 X165.1474 Y443.6628
G1 X162.8251 Y443.6562
G1 X165.1474 Y443.6628
G1 X175.2967 Y447.4869
G1 X175.8316 Y448.2625
G1 X175.2967 Y447.4869
G1 X175.3196 Y439.8962
G1 X175.8594 Y439.1232
G0 Z3.3
G0 X192.0619 Y403.1288
G0 Z-2.0
G1 F200.0 Z-4.0
G1 F2000.0 X192.1424 Y401.506
G1 X193.9144 Y398.2578
G3 X194.9042 Y397.611 I1.0973 J0.5986
G1 X198.6238 Y397.2899
G1 X200.1422 Y397.8679
G1 X198.6238 Y397.2899
G1 X196.0821 Y394.6009
G3 X195.7729 Y393.4596 I0.9084 J-0.8586
G1 X196.6169 Y389.8229
G1 X197.6358 Y388.5574
G1 X196.6169 Y389.8229
G1 X193.274 Y391.4092
G3 X192.0931 Y391.3507 I-0.5359 J-1.1293
G1 X188.8951 Y389.4242
G1 X188.0064 Y388.064
G1 X188.8951 Y389.4242
G1 X189.3708 Y393.0936
( gcode truncated )
( please support CamBam development by registering )
( www.cambam.info/shop )
G0 Z3.3
M30
